src/lib/packages/icons/src/assets/line/image-gallery-plus.svg

<svg width="24" height="24" viewBox="0 0 24 24" fill="none" xmlns="http://www.w3.org/2000/svg">
<path d="M22.175 5.015C21.675 4.351 20.872 3.93802 19.787 3.78502L9.22595 2.30504C8.14195 2.15204 7.26002 2.32704 6.59802 2.82604C5.93402 3.32604 5.52004 4.12903 5.36804 5.21203L5.22095 6.24816H4.66699C2.46399 6.24816 1.25 7.46115 1.25 9.66515V18.3331C1.25 20.5371 2.46399 21.7501 4.66699 21.7501H15.335C17.244 21.7501 18.4071 20.836 18.6851 19.16C20.2441 19.034 21.237 18.022 21.496 16.223L22.6949 7.64318C22.8499 6.56218 22.674 5.678 22.175 5.015ZM17.2531 18.3331C17.2531 19.6951 16.697 20.2501 15.335 20.2501H4.66699C3.30599 20.2501 2.75 19.6951 2.75 18.3331V9.66515C2.75 8.30315 3.30599 7.74816 4.66699 7.74816H15.335C16.697 7.74816 17.2531 8.30315 17.2531 9.66515V18.3331ZM21.21 7.43419L20.011 16.0131C19.865 17.0201 19.4871 17.527 18.7531 17.651V9.66515C18.7531 7.46115 17.539 6.24816 15.335 6.24816H6.73499L6.85205 5.42321C6.94805 4.74721 7.165 4.27604 7.5 4.02404C7.833 3.77304 8.34399 3.69315 9.01599 3.79015L19.578 5.27013C20.254 5.36613 20.724 5.5831 20.976 5.9171C21.228 6.2501 21.306 6.76019 21.21 7.43419ZM13.25 14.0001C13.25 14.4141 12.914 14.7501 12.5 14.7501H10.75V16.5001C10.75 16.9141 10.414 17.2501 10 17.2501C9.586 17.2501 9.25 16.9141 9.25 16.5001V14.7501H7.5C7.086 14.7501 6.75 14.4141 6.75 14.0001C6.75 13.5861 7.086 13.2501 7.5 13.2501H9.25V11.5001C9.25 11.0861 9.586 10.7501 10 10.7501C10.414 10.7501 10.75 11.0861 10.75 11.5001V13.2501H12.5C12.914 13.2501 13.25 13.5861 13.25 14.0001Z" fill="currentColor"/>
</svg>

<svg xmlns="http://www.w3.org/2000/svg" width="24" height="24" fill="none"><path fill="currentColor" d="M22.175 5.015c-.5-.664-1.303-1.077-2.388-1.23L9.226 2.305c-1.084-.153-1.966.022-2.628.521-.664.5-1.078 1.303-1.23 2.386l-.147 1.036h-.554c-2.203 0-3.417 1.213-3.417 3.417v8.668c0 2.204 1.214 3.417 3.417 3.417h10.668c1.909 0 3.072-.914 3.35-2.59 1.56-.126 2.552-1.138 2.811-2.937l1.199-8.58c.155-1.08-.021-1.965-.52-2.628Zm-4.922 13.318c0 1.362-.556 1.917-1.918 1.917H4.667c-1.361 0-1.917-.555-1.917-1.917V9.665c0-1.362.556-1.917 1.917-1.917h10.668c1.362 0 1.918.555 1.918 1.917v8.668ZM21.21 7.434l-1.199 8.58c-.146 1.006-.524 1.513-1.258 1.637V9.665c0-2.204-1.214-3.417-3.418-3.417h-8.6l.117-.825c.096-.676.313-1.147.648-1.399.333-.251.844-.33 1.516-.234l10.562 1.48c.676.096 1.146.313 1.398.647.252.333.33.843.234 1.517ZM13.25 14a.75.75 0 0 1-.75.75h-1.75v1.75a.75.75 0 0 1-1.5 0v-1.75H7.5a.75.75 0 0 1 0-1.5h1.75V11.5a.75.75 0 0 1 1.5 0v1.75h1.75a.75.75 0 0 1 .75.75Z"/></svg>
